Newaita-dark/devices/64/network-vpn.svg

<svg height="64pt" viewBox="0 0 64 64" width="64pt" xmlns="http://www.w3.org/2000/svg" xmlns:xlink="http://www.w3.org/1999/xlink"><linearGradient id="a"><stop offset="0" stop-opacity=".313725"/><stop offset=".222222" stop-opacity=".27451"/><stop offset="1" stop-opacity="0"/></linearGradient><radialGradient id="b" cx="450.90894" cy="189.57936" gradientTransform="matrix(.00000035 -.136732 -.281277 -.00000018 85.738694 118.631021)" gradientUnits="userSpaceOnUse" r="21.166656" xlink:href="#a"/><radialGradient id="c" cx="450.90894" cy="189.57936" gradientTransform="matrix(-.00000035 .136732 .281277 .00000018 -22.232628 -5.833794)" gradientUnits="userSpaceOnUse" r="21.166656" xlink:href="#a"/><radialGradient id="d" cx="450.90894" cy="189.57936" gradientTransform="matrix(-.00000035 -.136732 .281277 -.00000018 -22.232628 118.631021)" gradientUnits="userSpaceOnUse" r="21.166656" xlink:href="#a"/><radialGradient id="e" cx="450.90894" cy="189.57936" gradientTransform="matrix(.00000035 .136732 -.281277 .00000018 85.738691 -5.833795)" gradientUnits="userSpaceOnUse" r="21.166656" xlink:href="#a"/><linearGradient id="f" gradientTransform="matrix(.0267201 0 0 .109385 24.930769 30.857138)" gradientUnits="userSpaceOnUse" x1="255.32306" x2="255.32304" y1="233.5" y2="254.66666"><stop offset="0" stop-opacity=".27451"/><stop offset="1" stop-opacity="0"/></linearGradient><linearGradient id="g" gradientUnits="userSpaceOnUse" x1="31.753048" x2="31.753048" y1="56.067868" y2="5.79220824996"><stop offset="0" stop-color="#26c6da"/><stop offset="1" stop-color="#4dd0e1"/></linearGradient><linearGradient id="h" gradientUnits="userSpaceOnUse" x1="31.753048" x2="31.753048" y1="56.067868" y2="5.79220824996"><stop offset="0" stop-color="#bdbdbd"/><stop offset="1" stop-color="#e0e0e0"/></linearGradient><linearGradient id="i" gradientUnits="userSpaceOnUse" x1="31.753056" x2="31.753056" xlink:href="#a" y1="5.79222444893" y2="56.06789909502"/><path d="m33.074219 56.398438h5.292969v-2.316407h-5.292969zm0 0" fill="url(#b)"/><path d="m30.429688 56.398438h-5.292969v2.316406h5.292969zm0 0" fill="url(#c)"/><path d="m30.429688 56.398438h-5.292969v-2.316407h5.292969zm0 0" fill="url(#d)"/><path d="m33.074219 56.398438h5.292969v2.316406h-5.292969zm0 0" fill="url(#e)"/><path d="m30.429688 55.820312h2.644531v2.894532h-2.644531zm0 0" fill="url(#f)"/><path d="m31.753906 5.792969c17.199219 0 23.8125 3.96875 23.8125 7.9375 0 19.84375-14.550781 42.335937-23.8125 42.335937-9.261718 0-23.816406-22.492187-23.816406-42.335937 0-3.96875 7.9375-7.9375 23.816406-7.9375zm0 0" fill="url(#g)"/><path d="m31.753906 5.792969c-15.878906 0-23.816406 3.96875-23.816406 7.9375 0 19.84375 14.554688 42.335937 23.816406 42.335937 9.261719 0 23.8125-22.492187 23.8125-42.335937 0-3.96875-6.613281-7.9375-23.8125-7.9375zm0 2.644531c15.398438 0 21.324219 3.554688 21.324219 7.109375 0 17.769531-13.03125 37.910156-21.324219 37.910156-8.292968 0-21.324218-20.140625-21.324218-37.910156 0-3.554687 7.105468-7.109375 21.324218-7.109375zm0 0" fill="url(#h)"/><path d="m55.558594 13.429688c-.417969 19.625-14.679688 41.464843-23.804688 41.464843s-23.382812-21.824219-23.804687-41.445312c-.007813.078125-.011719.15625-.011719.238281 0 19.84375 14.554688 42.335938 23.816406 42.335938 9.261719 0 23.8125-22.492188 23.8125-42.335938 0-.085938-.003906-.171875-.007812-.257812zm0 0" fill-opacity=".235294"/><path d="m31.753906 5.792969c-15.878906 0-23.816406 3.96875-23.816406 7.9375 0 .171875.003906.347656.003906.523437.183594-3.921875 8.121094-7.800781 23.8125-7.800781 16.980469 0 23.644532 3.871094 23.808594 7.789063.003906-.171876.003906-.339844.003906-.511719 0-3.96875-6.613281-7.9375-23.8125-7.9375zm0 0" fill="#fff" fill-opacity=".392157"/><path d="m31.753906 5.605469c-7.953125 0-13.925781.992187-17.929687 2.492187-2 .75-3.507813 1.625-4.527344 2.582032-1.015625.953124-1.546875 1.996093-1.546875 3.050781 0 9.96875 3.648438 20.578125 8.460938 28.707031 2.40625 4.0625 5.101562 7.507812 7.789062 9.945312 2.683594 2.433594 5.363281 3.871094 7.753906 3.871094s5.066406-1.4375 7.753906-3.871094c2.683594-2.4375 5.382813-5.882812 7.785157-9.945312 4.8125-8.128906 8.460937-18.738281 8.460937-28.707031 0-1.042969-.4375-2.085938-1.351562-3.042969-.917969-.957031-2.304688-1.839844-4.222656-2.589844-3.839844-1.5-9.8125-2.492187-18.425782-2.492187zm0 .375c8.585938 0 14.519532.992187 18.289063 2.46875 1.882812.734375 3.222656 1.59375 4.085937 2.496093.863282.902344 1.25 1.84375 1.25 2.785157 0 9.878906-3.625 20.4375-8.40625 28.515625-2.390625 4.039062-5.070312 7.457031-7.71875 9.859375-2.648437 2.402343-5.261718 3.773437-7.5 3.773437-2.242187 0-4.855468-1.371094-7.503906-3.773437-2.648438-2.402344-5.324219-5.820313-7.714844-9.859375-4.78125-8.078125-8.410156-18.636719-8.410156-28.515625 0-.929688.464844-1.871094 1.429688-2.777344.964843-.90625 2.433593-1.765625 4.402343-2.503906 3.9375-1.476563 9.875-2.46875 17.796875-2.46875zm0 2.269531c-7.125 0-12.472656.890625-16.058594 2.234375-1.792968.671875-3.148437 1.457031-4.0625 2.316406-.914062.855469-1.390624 1.792969-1.390624 2.746094 0 8.929687 3.269531 18.433594 7.578124 25.714844 2.152344 3.640625 4.570313 6.726562 6.976563 8.910156s4.808594 3.472656 6.957031 3.472656c2.148438 0 4.546875-1.289062 6.957032-3.472656 2.40625-2.183594 4.820312-5.269531 6.976562-8.910156 4.308594-7.28125 7.578125-16.785157 7.578125-25.714844 0-.941406-.398437-1.878906-1.21875-2.738281-.820313-.863282-2.066406-1.648438-3.789063-2.324219-3.441406-1.347656-8.789062-2.234375-16.503906-2.234375zm0 .375c7.683594 0 12.996094.890625 16.367188 2.210938 1.6875.65625 2.882812 1.425781 3.65625 2.230468.769531.804688 1.113281 1.644532 1.113281 2.480469 0 8.839844-3.246094 18.292969-7.527344 25.523437-2.140625 3.613282-4.535156 6.675782-6.90625 8.824219-2.367187 2.148438-4.707031 3.375-6.703125 3.375-2 0-4.335937-1.226562-6.707031-3.375-2.367187-2.148437-4.765625-5.210937-6.90625-8.824219-4.277344-7.230468-7.523437-16.683593-7.523437-25.523437 0-.828125.410156-1.664063 1.273437-2.472656.863281-.808594 2.175781-1.578125 3.933594-2.238281 3.523437-1.320313 8.835937-2.210938 15.929687-2.210938zm0 0" fill="#212121"/><path d="m31.753906 15.054688c-4.398437 0-7.9375 3.539062-7.9375 7.9375 0 3.46875 2.203125 6.402343 5.289063 7.488281v9.710937c0 1.464844 1.125 2.644532 2.523437 2.644532h.246094c1.398438 0 2.523438-1.179688 2.523438-2.644532v-9.710937c3.089843-1.085938 5.292968-4.019531 5.292968-7.488281 0-4.398438-3.539062-7.9375-7.9375-7.9375zm0 0" fill="url(#i)"/><path d="m31.753906 15.054688c-4.398437 0-7.9375 3.539062-7.9375 7.9375 0 .222656.007813.445312.027344.664062.332031-4.089844 3.734375-7.28125 7.910156-7.28125 4.175782 0 7.578125 3.191406 7.910156 7.28125.019532-.21875.027344-.441406.027344-.664062 0-4.398438-3.539062-7.9375-7.9375-7.9375zm0 0" fill-opacity=".235294"/><path d="m23.84375 23.441406c-.019531.21875-.027344.4375-.027344.660156 0 3.46875 2.203125 6.40625 5.289063 7.488282v-1.320313c-2.886719-1.015625-5.003907-3.652343-5.261719-6.828125zm15.820312 0c-.261718 3.175782-2.375 5.8125-5.265624 6.828125v1.320313c3.089843-1.082032 5.292968-4.019532 5.292968-7.488282 0-.222656-.007812-.441406-.027344-.660156zm-10.558593 16.539063v1.320312c0 1.46875 1.125 2.648438 2.523437 2.648438h.246094c1.398438 0 2.523438-1.179688 2.523438-2.648438v-1.320312c0 1.464843-1.125 2.644531-2.523438 2.644531h-.246094c-1.398437 0-2.523437-1.179688-2.523437-2.644531zm0 0" fill="#fff" fill-opacity=".392157"/><path d="m960.026444 455.153391c-132.979428 0-239.977086 106.997658-239.977086 239.977087 0 104.871876 66.607813 193.564195 159.905992 226.395705v293.594015c0 44.28711 34.0125 79.952995 76.291928 79.952995h7.440234c42.279428 0 76.291928-35.665885 76.291928-79.952995v-293.594015c93.416277-32.83151 160.024091-121.523829 160.024091-226.395705 0-132.979429-106.997658-239.977087-239.977087-239.977087zm0 0" fill="none" stroke="#212121" stroke-linecap="round" stroke-linejoin="round" stroke-width="11.338583" transform="scale(.0330761)"/></svg>

<?xml version="1.0" encoding="UTF-8"?>
<svg xmlns="http://www.w3.org/2000/svg" xmlns:xlink="http://www.w3.org/1999/xlink" width="64pt" height="64pt" viewBox="0 0 64 64" version="1.1">
<defs>
<radialGradient id="radial0" gradientUnits="userSpaceOnUse" cx="450.90894" cy="189.57936" fx="450.90894" fy="189.57936" r="21.166656" gradientTransform="matrix(0.000000348341,-0.136732,-0.281277,-0.000000177692,85.738694,118.631021)">
<stop offset="0" style="stop-color:rgb(0%,0%,0%);stop-opacity:0.313725;"/>
<stop offset="0.222222" style="stop-color:rgb(0%,0%,0%);stop-opacity:0.27451;"/>
<stop offset="1" style="stop-color:rgb(0%,0%,0%);stop-opacity:0;"/>
</radialGradient>
<radialGradient id="radial1" gradientUnits="userSpaceOnUse" cx="450.90894" cy="189.57936" fx="450.90894" fy="189.57936" r="21.166656" gradientTransform="matrix(-0.000000348341,0.136732,0.281277,0.000000177692,-22.232628,-5.833794)">
<stop offset="0" style="stop-color:rgb(0%,0%,0%);stop-opacity:0.313725;"/>
<stop offset="0.222222" style="stop-color:rgb(0%,0%,0%);stop-opacity:0.27451;"/>
<stop offset="1" style="stop-color:rgb(0%,0%,0%);stop-opacity:0;"/>
</radialGradient>
<radialGradient id="radial2" gradientUnits="userSpaceOnUse" cx="450.90894" cy="189.57936" fx="450.90894" fy="189.57936" r="21.166656" gradientTransform="matrix(-0.000000348341,-0.136732,0.281277,-0.000000177692,-22.232628,118.631021)">
<stop offset="0" style="stop-color:rgb(0%,0%,0%);stop-opacity:0.313725;"/>
<stop offset="0.222222" style="stop-color:rgb(0%,0%,0%);stop-opacity:0.27451;"/>
<stop offset="1" style="stop-color:rgb(0%,0%,0%);stop-opacity:0;"/>
</radialGradient>
<radialGradient id="radial3" gradientUnits="userSpaceOnUse" cx="450.90894" cy="189.57936" fx="450.90894" fy="189.57936" r="21.166656" gradientTransform="matrix(0.000000348341,0.136732,-0.281277,0.000000177692,85.738691,-5.833795)">
<stop offset="0" style="stop-color:rgb(0%,0%,0%);stop-opacity:0.313725;"/>
<stop offset="0.222222" style="stop-color:rgb(0%,0%,0%);stop-opacity:0.27451;"/>
<stop offset="1" style="stop-color:rgb(0%,0%,0%);stop-opacity:0;"/>
</radialGradient>
<linearGradient id="linear0" gradientUnits="userSpaceOnUse" x1="255.32306" y1="233.5" x2="255.32304" y2="254.66666" gradientTransform="matrix(0.0267201,0,0,0.109385,24.930769,30.857138)">
<stop offset="0" style="stop-color:rgb(0%,0%,0%);stop-opacity:0.27451;"/>
<stop offset="1" style="stop-color:rgb(0%,0%,0%);stop-opacity:0;"/>
</linearGradient>
<linearGradient id="linear1" gradientUnits="userSpaceOnUse" x1="254" y1="233.5" x2="254" y2="-168.66667" gradientTransform="matrix(0.125012,0,0,0.125012,0,26.877566)">
<stop offset="0" style="stop-color:rgb(14.901961%,77.647059%,85.490196%);stop-opacity:1;"/>
<stop offset="1" style="stop-color:rgb(30.196078%,81.568627%,88.235294%);stop-opacity:1;"/>
</linearGradient>
<linearGradient id="linear2" gradientUnits="userSpaceOnUse" x1="254" y1="233.5" x2="254" y2="-168.66667" gradientTransform="matrix(0.125012,0,0,0.125012,0,26.877566)">
<stop offset="0" style="stop-color:rgb(74.117647%,74.117647%,74.117647%);stop-opacity:1;"/>
<stop offset="1" style="stop-color:rgb(87.843137%,87.843137%,87.843137%);stop-opacity:1;"/>
</linearGradient>
<linearGradient id="linear3" gradientUnits="userSpaceOnUse" x1="960" y1="175.11812" x2="960" y2="1695.1182" gradientTransform="matrix(0.0330761,0,0,0.0330761,0,0)">
<stop offset="0" style="stop-color:rgb(0%,0%,0%);stop-opacity:0.313725;"/>
<stop offset="0.222222" style="stop-color:rgb(0%,0%,0%);stop-opacity:0.27451;"/>
<stop offset="1" style="stop-color:rgb(0%,0%,0%);stop-opacity:0;"/>
</linearGradient>
</defs>
<g id="surface1">
<path style=" stroke:none;fill-rule:nonzero;fill:url(#radial0);" d="M 33.074219 56.398438 L 38.367188 56.398438 L 38.367188 54.082031 L 33.074219 54.082031 Z M 33.074219 56.398438 "/>
<path style=" stroke:none;fill-rule:nonzero;fill:url(#radial1);" d="M 30.429688 56.398438 L 25.136719 56.398438 L 25.136719 58.714844 L 30.429688 58.714844 Z M 30.429688 56.398438 "/>
<path style=" stroke:none;fill-rule:nonzero;fill:url(#radial2);" d="M 30.429688 56.398438 L 25.136719 56.398438 L 25.136719 54.082031 L 30.429688 54.082031 Z M 30.429688 56.398438 "/>
<path style=" stroke:none;fill-rule:nonzero;fill:url(#radial3);" d="M 33.074219 56.398438 L 38.367188 56.398438 L 38.367188 58.714844 L 33.074219 58.714844 Z M 33.074219 56.398438 "/>
<path style=" stroke:none;fill-rule:nonzero;fill:url(#linear0);" d="M 30.429688 55.820312 L 33.074219 55.820312 L 33.074219 58.714844 L 30.429688 58.714844 Z M 30.429688 55.820312 "/>
<path style=" stroke:none;fill-rule:nonzero;fill:url(#linear1);" d="M 31.753906 5.792969 C 48.953125 5.792969 55.566406 9.761719 55.566406 13.730469 C 55.566406 33.574219 41.015625 56.066406 31.753906 56.066406 C 22.492188 56.066406 7.9375 33.574219 7.9375 13.730469 C 7.9375 9.761719 15.875 5.792969 31.753906 5.792969 Z M 31.753906 5.792969 "/>
<path style=" stroke:none;fill-rule:nonzero;fill:url(#linear2);" d="M 31.753906 5.792969 C 15.875 5.792969 7.9375 9.761719 7.9375 13.730469 C 7.9375 33.574219 22.492188 56.066406 31.753906 56.066406 C 41.015625 56.066406 55.566406 33.574219 55.566406 13.730469 C 55.566406 9.761719 48.953125 5.792969 31.753906 5.792969 Z M 31.753906 8.4375 C 47.152344 8.4375 53.078125 11.992188 53.078125 15.546875 C 53.078125 33.316406 40.046875 53.457031 31.753906 53.457031 C 23.460938 53.457031 10.429688 33.316406 10.429688 15.546875 C 10.429688 11.992188 17.535156 8.4375 31.753906 8.4375 Z M 31.753906 8.4375 "/>
<path style=" stroke:none;fill-rule:nonzero;fill:rgb(0%,0%,0%);fill-opacity:0.235294;" d="M 55.558594 13.429688 C 55.140625 33.054688 40.878906 54.894531 31.753906 54.894531 C 22.628906 54.894531 8.371094 33.070312 7.949219 13.449219 C 7.941406 13.527344 7.9375 13.605469 7.9375 13.6875 C 7.9375 33.53125 22.492188 56.023438 31.753906 56.023438 C 41.015625 56.023438 55.566406 33.53125 55.566406 13.6875 C 55.566406 13.601562 55.5625 13.515625 55.558594 13.429688 Z M 55.558594 13.429688 "/>
<path style=" stroke:none;fill-rule:nonzero;fill:rgb(100%,100%,100%);fill-opacity:0.392157;" d="M 31.753906 5.792969 C 15.875 5.792969 7.9375 9.761719 7.9375 13.730469 C 7.9375 13.902344 7.941406 14.078125 7.941406 14.253906 C 8.125 10.332031 16.0625 6.453125 31.753906 6.453125 C 48.734375 6.453125 55.398438 10.324219 55.5625 14.242188 C 55.566406 14.070312 55.566406 13.902344 55.566406 13.730469 C 55.566406 9.761719 48.953125 5.792969 31.753906 5.792969 Z M 31.753906 5.792969 "/>
<path style=" stroke:none;fill-rule:nonzero;fill:rgb(12.941176%,12.941176%,12.941176%);fill-opacity:1;" d="M 31.753906 5.605469 C 23.800781 5.605469 17.828125 6.597656 13.824219 8.097656 C 11.824219 8.847656 10.316406 9.722656 9.296875 10.679688 C 8.28125 11.632812 7.75 12.675781 7.75 13.730469 C 7.75 23.699219 11.398438 34.308594 16.210938 42.4375 C 18.617188 46.5 21.3125 49.945312 24 52.382812 C 26.683594 54.816406 29.363281 56.253906 31.753906 56.253906 C 34.144531 56.253906 36.820312 54.816406 39.507812 52.382812 C 42.191406 49.945312 44.890625 46.5 47.292969 42.4375 C 52.105469 34.308594 55.753906 23.699219 55.753906 13.730469 C 55.753906 12.6875 55.316406 11.644531 54.402344 10.6875 C 53.484375 9.730469 52.097656 8.847656 50.179688 8.097656 C 46.339844 6.597656 40.367188 5.605469 31.753906 5.605469 Z M 31.753906 5.980469 C 40.339844 5.980469 46.273438 6.972656 50.042969 8.449219 C 51.925781 9.183594 53.265625 10.042969 54.128906 10.945312 C 54.992188 11.847656 55.378906 12.789062 55.378906 13.730469 C 55.378906 23.609375 51.753906 34.167969 46.972656 42.246094 C 44.582031 46.285156 41.902344 49.703125 39.253906 52.105469 C 36.605469 54.507812 33.992188 55.878906 31.753906 55.878906 C 29.511719 55.878906 26.898438 54.507812 24.25 52.105469 C 21.601562 49.703125 18.925781 46.285156 16.535156 42.246094 C 11.753906 34.167969 8.125 23.609375 8.125 13.730469 C 8.125 12.800781 8.589844 11.859375 9.554688 10.953125 C 10.519531 10.046875 11.988281 9.1875 13.957031 8.449219 C 17.894531 6.972656 23.832031 5.980469 31.753906 5.980469 Z M 31.753906 8.25 C 24.628906 8.25 19.28125 9.140625 15.695312 10.484375 C 13.902344 11.15625 12.546875 11.941406 11.632812 12.800781 C 10.71875 13.65625 10.242188 14.59375 10.242188 15.546875 C 10.242188 24.476562 13.511719 33.980469 17.820312 41.261719 C 19.972656 44.902344 22.390625 47.988281 24.796875 50.171875 C 27.203125 52.355469 29.605469 53.644531 31.753906 53.644531 C 33.902344 53.644531 36.300781 52.355469 38.710938 50.171875 C 41.117188 47.988281 43.53125 44.902344 45.6875 41.261719 C 49.996094 33.980469 53.265625 24.476562 53.265625 15.546875 C 53.265625 14.605469 52.867188 13.667969 52.046875 12.808594 C 51.226562 11.945312 49.980469 11.160156 48.257812 10.484375 C 44.816406 9.136719 39.46875 8.25 31.753906 8.25 Z M 31.753906 8.625 C 39.4375 8.625 44.75 9.515625 48.121094 10.835938 C 49.808594 11.492188 51.003906 12.261719 51.777344 13.066406 C 52.546875 13.871094 52.890625 14.710938 52.890625 15.546875 C 52.890625 24.386719 49.644531 33.839844 45.363281 41.070312 C 43.222656 44.683594 40.828125 47.746094 38.457031 49.894531 C 36.089844 52.042969 33.75 53.269531 31.753906 53.269531 C 29.753906 53.269531 27.417969 52.042969 25.046875 49.894531 C 22.679688 47.746094 20.28125 44.683594 18.140625 41.070312 C 13.863281 33.839844 10.617188 24.386719 10.617188 15.546875 C 10.617188 14.71875 11.027344 13.882812 11.890625 13.074219 C 12.753906 12.265625 14.066406 11.496094 15.824219 10.835938 C 19.347656 9.515625 24.660156 8.625 31.753906 8.625 Z M 31.753906 8.625 "/>
<path style=" stroke:none;fill-rule:nonzero;fill:url(#linear3);" d="M 31.753906 15.054688 C 27.355469 15.054688 23.816406 18.59375 23.816406 22.992188 C 23.816406 26.460938 26.019531 29.394531 29.105469 30.480469 L 29.105469 40.191406 C 29.105469 41.65625 30.230469 42.835938 31.628906 42.835938 L 31.875 42.835938 C 33.273438 42.835938 34.398438 41.65625 34.398438 40.191406 L 34.398438 30.480469 C 37.488281 29.394531 39.691406 26.460938 39.691406 22.992188 C 39.691406 18.59375 36.152344 15.054688 31.753906 15.054688 Z M 31.753906 15.054688 "/>
<path style=" stroke:none;fill-rule:nonzero;fill:rgb(0%,0%,0%);fill-opacity:0.235294;" d="M 31.753906 15.054688 C 27.355469 15.054688 23.816406 18.59375 23.816406 22.992188 C 23.816406 23.214844 23.824219 23.4375 23.84375 23.65625 C 24.175781 19.566406 27.578125 16.375 31.753906 16.375 C 35.929688 16.375 39.332031 19.566406 39.664062 23.65625 C 39.683594 23.4375 39.691406 23.214844 39.691406 22.992188 C 39.691406 18.59375 36.152344 15.054688 31.753906 15.054688 Z M 31.753906 15.054688 "/>
<path style=" stroke:none;fill-rule:nonzero;fill:rgb(100%,100%,100%);fill-opacity:0.392157;" d="M 23.84375 23.441406 C 23.824219 23.660156 23.816406 23.878906 23.816406 24.101562 C 23.816406 27.570312 26.019531 30.507812 29.105469 31.589844 L 29.105469 30.269531 C 26.21875 29.253906 24.101562 26.617188 23.84375 23.441406 Z M 39.664062 23.441406 C 39.402344 26.617188 37.289062 29.253906 34.398438 30.269531 L 34.398438 31.589844 C 37.488281 30.507812 39.691406 27.570312 39.691406 24.101562 C 39.691406 23.878906 39.683594 23.660156 39.664062 23.441406 Z M 29.105469 39.980469 L 29.105469 41.300781 C 29.105469 42.769531 30.230469 43.949219 31.628906 43.949219 L 31.875 43.949219 C 33.273438 43.949219 34.398438 42.769531 34.398438 41.300781 L 34.398438 39.980469 C 34.398438 41.445312 33.273438 42.625 31.875 42.625 L 31.628906 42.625 C 30.230469 42.625 29.105469 41.445312 29.105469 39.980469 Z M 29.105469 39.980469 "/>
<path style="fill:none;stroke-width:11.338583;stroke-linecap:round;stroke-linejoin:round;stroke:rgb(12.941176%,12.941176%,12.941176%);stroke-opacity:1;stroke-miterlimit:4;" d="M 960.026444 455.153391 C 827.047016 455.153391 720.049358 562.151049 720.049358 695.130478 C 720.049358 800.002354 786.657171 888.694673 879.95535 921.526183 L 879.95535 1215.120198 C 879.95535 1259.407308 913.96785 1295.073193 956.247278 1295.073193 L 963.687512 1295.073193 C 1005.96694 1295.073193 1039.97944 1259.407308 1039.97944 1215.120198 L 1039.97944 921.526183 C 1133.395717 888.694673 1200.003531 800.002354 1200.003531 695.130478 C 1200.003531 562.151049 1093.005873 455.153391 960.026444 455.153391 Z M 960.026444 455.153391 " transform="matrix(0.0330761,0,0,0.0330761,0,0)"/>
</g>
</svg>
